src/apps/scalable/virt-manager.svg

<svg width="64" height="64" version="1.1" viewBox="0 0 64 64" xmlns="http://www.w3.org/2000/svg" xmlns:xlink="http://www.w3.org/1999/xlink">
 <defs>
  <linearGradient id="linearGradient862-3" x1="7.9373" x2="7.9373" y1="15.081" y2="1.852" gradientTransform="matrix(3.7795 0 0 3.7795 .00014314 .031541)" gradientUnits="userSpaceOnUse" xlink:href="#f">
   <stop stop-color="#bec4c8" offset="0"/>
   <stop stop-color="#eeeff0" offset="1"/>
  </linearGradient>
  <filter id="filter929" x="-.076235" y="-.18514" width="1.1525" height="1.3703" color-interpolation-filters="sRGB">
   <feGaussianBlur stdDeviation="1.62"/>
  </filter>
 </defs>
 <linearGradient id="b" x1="428.37" x2="428.37" y1="530.8" y2="525.8" gradientTransform="matrix(4.2857 0 0 4.2 -1819.4 -2187.3)" gradientUnits="userSpaceOnUse">
  <stop stop-color="#da4453" offset="0"/>
  <stop stop-color="#fa4e5f" offset="1"/>
 </linearGradient>
 <linearGradient id="c" x1="34" x2="34" y1="31" y2="17" gradientTransform="matrix(1.5 0 0 1.5 -4.5 -4.5)" gradientUnits="userSpaceOnUse">
  <stop stop-color="#4d4d4d" offset="0"/>
  <stop stop-color="#585858" offset="1"/>
 </linearGradient>
 <linearGradient id="d" x1="32" x2="32" y1="31" y2="17" gradientTransform="matrix(1.5 0 0 1.5 -4.5 -4.5)" gradientUnits="userSpaceOnUse">
  <stop stop-color="#afb0b3" offset="0"/>
  <stop stop-color="#bdc3c7" offset="1"/>
 </linearGradient>
 <linearGradient id="e" x1="29" x2="29" y1="17" y2="31" gradientTransform="matrix(1.5 0 0 1.5 -4.5 -4.5)" gradientUnits="userSpaceOnUse">
  <stop stop-color="#31363b" offset="0"/>
  <stop stop-color="#4d4d4d" offset="1"/>
 </linearGradient>
 <linearGradient id="f" x1="26" x2="26" y1="17" y2="31" gradientTransform="matrix(1.5 0 0 1.5 -4.5 -4.5)" gradientUnits="userSpaceOnUse">
  <stop stop-color="#7f8c8d" offset="0"/>
  <stop stop-color="#afb0b3" offset="1"/>
 </linearGradient>
 <g transform="scale(3.7796)" shape-rendering="auto">
  <path d="m4.3693 0.52916c-2.1142 0-3.8402 1.7835-3.8402 3.9682v8.4675c0 2.1846 1.726 3.9682 3.8402 3.9682h8.1944c2.1142 0 3.8402-1.7835 3.8402-3.9682v-8.4675c0-2.1846-1.726-3.9682-3.8402-3.9682zm0.25704 0.52089h7.6808c1.8443 0 3.3291 1.5342 3.3291 3.44v7.9368c0 1.9058-1.4847 3.44-3.3291 3.44h-7.6808c-1.8443 0-3.3291-1.5342-3.3291-3.44v-7.9368c0-1.9058 1.4847-3.44 3.3291-3.44z" color="#000000" color-rendering="auto" dominant-baseline="auto" image-rendering="auto" opacity=".01" solid-color="#000000" stop-color="#000000" style="font-feature-settings:normal;font-variant-alternates:normal;font-variant-caps:normal;font-variant-east-asian:normal;font-variant-ligatures:normal;font-variant-numeric:normal;font-variant-position:normal;font-variation-settings:normal;inline-size:0;isolation:auto;mix-blend-mode:normal;shape-margin:0;shape-padding:0;text-decoration-color:#000000;text-decoration-line:none;text-decoration-style:solid;text-indent:0;text-orientation:mixed;text-transform:none;white-space:normal"/>
  <path d="m4.3587 0.79373c-1.9668 0-3.5639 1.6528-3.5639 3.6876v8.4996c0 2.0348 1.5971 3.6876 3.5639 3.6876h8.2162c1.9668 0 3.5644-1.6528 3.5644-3.6876v-8.4996c0-2.0348-1.5976-3.6876-3.5644-3.6876zm0.27222 0.25631h7.6718c1.8422 0 3.3251 1.5342 3.3251 3.44v7.9368c0 1.9058-1.483 3.44-3.3251 3.44h-7.6718c-1.8422 0-3.3251-1.5342-3.3251-3.44v-7.9368c0-1.9058 1.483-3.44 3.3251-3.44z" color="#000000" color-rendering="auto" dominant-baseline="auto" image-rendering="auto" opacity=".01" solid-color="#000000" stop-color="#000000" style="font-feature-settings:normal;font-variant-alternates:normal;font-variant-caps:normal;font-variant-east-asian:normal;font-variant-ligatures:normal;font-variant-numeric:normal;font-variant-position:normal;font-variation-settings:normal;inline-size:0;isolation:auto;mix-blend-mode:normal;shape-margin:0;shape-padding:0;text-decoration-color:#000000;text-decoration-line:none;text-decoration-style:solid;text-indent:0;text-orientation:mixed;text-transform:none;white-space:normal"/>
  <path d="m4.3097 1.0583c-1.8657 0-3.3751 1.5383-3.3751 3.439v8.4675c0 1.9007 1.57 3.439 3.4357 3.439h8.1996c1.8657 0 3.4274-1.5383 3.4274-3.439v-8.4675c0-1.9007-1.51-3.439-3.3756-3.439h-0.09688c1.794 0.086515 3.2138 1.5819 3.2138 3.4318v7.9368c0 1.9058-1.5059 3.44-3.3766 3.44h-7.7905c-1.8707 0-3.3766-1.5342-3.3766-3.44v-7.9368c0-1.8498 1.4199-3.3451 3.2138-3.4318z" color="#000000" color-rendering="auto" dominant-baseline="auto" image-rendering="auto" opacity=".03" solid-color="#000000" stop-color="#000000" style="font-feature-settings:normal;font-variant-alternates:normal;font-variant-caps:normal;font-variant-east-asian:normal;font-variant-ligatures:normal;font-variant-numeric:normal;font-variant-position:normal;font-variation-settings:normal;inline-size:0;isolation:auto;mix-blend-mode:normal;shape-margin:0;shape-padding:0;text-decoration-color:#000000;text-decoration-line:none;text-decoration-style:solid;text-indent:0;text-orientation:mixed;text-transform:none;white-space:normal"/>
  <path transform="scale(.26458)" d="m4 46.969v2.0312c0 6.6479 5.8957 12 12.544 12h30.961c6.6479 0 12.495-5.3521 12.495-12v-1.9922c-0.02117 7.1849-5.81 12.963-13 12.963h-29.998c-7.2032 0-13.002-5.7987-13.002-13.002z" color="#000000" color-rendering="auto" dominant-baseline="auto" image-rendering="auto" opacity=".03" solid-color="#000000" stop-color="#000000" style="font-feature-settings:normal;font-variant-alternates:normal;font-variant-caps:normal;font-variant-east-asian:normal;font-variant-ligatures:normal;font-variant-numeric:normal;font-variant-position:normal;font-variation-settings:normal;inline-size:0;isolation:auto;mix-blend-mode:normal;shape-margin:0;shape-padding:0;text-decoration-color:#000000;text-decoration-line:none;text-decoration-style:solid;text-indent:0;text-orientation:mixed;text-transform:none;white-space:normal"/>
  <path d="m1.0583 11.906v0.59234c0 1.9386 1.5729 3.4993 3.3318 3.4993h8.1603c1.7589 0 3.3243-1.5608 3.3243-3.4993v-0.58095c-0.0056 2.0952-1.5372 3.7801-3.4395 3.7801h-7.9368c-1.9058 0-3.44-1.691-3.44-3.7915z" color="#000000" color-rendering="auto" dominant-baseline="auto" image-rendering="auto" opacity=".05" solid-color="#000000" stop-color="#000000" style="font-feature-settings:normal;font-variant-alternates:normal;font-variant-caps:normal;font-variant-east-asian:normal;font-variant-ligatures:normal;font-variant-numeric:normal;font-variant-position:normal;font-variation-settings:normal;inline-size:0;isolation:auto;mix-blend-mode:normal;shape-margin:0;shape-padding:0;text-decoration-color:#000000;text-decoration-line:none;text-decoration-style:solid;text-indent:0;text-orientation:mixed;text-transform:none;white-space:normal"/>
 </g>
 <rect x="4" y="4" width="56" height="56" rx="13.002" ry="13.002" fill="url(#linearGradient862-3)" stroke-width="3.7795"/>
 <g stroke-width="1.5">
  <path d="m6.5 22.103 7.5 21h13.5l3-8.4004 3 8.4004h9l3-8.4004 3 8.4004h9l-7.5-21h-9l-3 8.4004-3-8.4004h-13.5l-5.25 15-5.25-15z" filter="url(#filter929)" opacity=".25"/>
  <path d="m6 21h4.5l5.25 15 5.25-15h4.5l-7.5 21-4.5-9.9e-5z" fill="url(#b)"/>
  <path d="m22.5 42 7.5-21h4.5l-7.5 21zm15 0 7.5-21h4.5l-7.5 21z" fill="url(#e)"/>
  <path d="m18 42 7.5-21h4.5l-7.5 21zm15 0 7.5-21h4.5l-7.5 21z" fill="url(#f)"/>
  <path d="m37.5 42h-4.5l-7.5-21h4.5zm15 0h-4.5l-7.5-21h4.5z" fill="url(#d)"/>
  <path d="m30 21 7.5 21h4.5l-7.5-21zm15 0 7.5 21h4.5l-7.5-21z" fill="url(#c)"/>
 </g>
</svg>

<svg width="64" height="64" xmlns="http://www.w3.org/2000/svg" xmlns:xlink="http://www.w3.org/1999/xlink"><defs><linearGradient id="b" x1="7.937" x2="7.937" y1="15.081" y2="1.852" gradientTransform="translate(0 .032) scale(3.7795)" gradientUnits="userSpaceOnUse" xlink:href="#a"><stop stop-color="#bec4c8" offset="0"/><stop stop-color="#eeeff0" offset="1"/></linearGradient><filter id="c" x="-.076" y="-.185" width="1.153" height="1.37" color-interpolation-filters="sRGB"><feGaussianBlur stdDeviation="1.62"/></filter></defs><linearGradient id="d" x1="428.37" x2="428.37" y1="530.8" y2="525.8" gradientTransform="matrix(4.2857 0 0 4.2 -1819.4 -2187.3)" gradientUnits="userSpaceOnUse"><stop stop-color="#da4453" offset="0"/><stop stop-color="#fa4e5f" offset="1"/></linearGradient><linearGradient id="g" x1="34" x2="34" y1="31" y2="17" gradientTransform="matrix(1.5 0 0 1.5 -4.5 -4.5)" gradientUnits="userSpaceOnUse"><stop stop-color="#4d4d4d" offset="0"/><stop stop-color="#585858" offset="1"/></linearGradient><linearGradient id="f" x1="32" x2="32" y1="31" y2="17" gradientTransform="matrix(1.5 0 0 1.5 -4.5 -4.5)" gradientUnits="userSpaceOnUse"><stop stop-color="#afb0b3" offset="0"/><stop stop-color="#bdc3c7" offset="1"/></linearGradient><linearGradient id="e" x1="29" x2="29" y1="17" y2="31" gradientTransform="matrix(1.5 0 0 1.5 -4.5 -4.5)" gradientUnits="userSpaceOnUse"><stop stop-color="#31363b" offset="0"/><stop stop-color="#4d4d4d" offset="1"/></linearGradient><linearGradient id="a" x1="26" x2="26" y1="17" y2="31" gradientTransform="matrix(1.5 0 0 1.5 -4.5 -4.5)" gradientUnits="userSpaceOnUse"><stop stop-color="#7f8c8d" offset="0"/><stop stop-color="#afb0b3" offset="1"/></linearGradient><g color="#000"><path d="M4.37.53C2.254.53.53 2.312.53 4.496v8.468c0 2.184 1.725 3.968 3.84 3.968h8.194c2.114 0 3.84-1.783 3.84-3.968V4.497c0-2.184-1.726-3.968-3.84-3.968zm.256.52h7.681c1.844 0 3.33 1.534 3.33 3.44v7.937c0 1.906-1.485 3.44-3.33 3.44h-7.68c-1.845 0-3.33-1.534-3.33-3.44V4.49c0-1.906 1.485-3.44 3.33-3.44z" opacity=".01" style="font-feature-settings:normal;font-variant-alternates:normal;font-variant-caps:normal;font-variant-east-asian:normal;font-variant-ligatures:normal;font-variant-numeric:normal;font-variant-position:normal;font-variation-settings:normal;inline-size:0;isolation:auto;mix-blend-mode:normal;shape-margin:0;shape-padding:0;text-decoration-color:#000;text-decoration-line:none;text-decoration-style:solid;text-indent:0;text-orientation:mixed;text-transform:none;white-space:normal" transform="scale(3.7796)"/><path d="M4.359.794C2.392.794.795 2.447.795 4.48v8.5c0 2.035 1.597 3.688 3.564 3.688h8.216c1.967 0 3.564-1.653 3.564-3.688v-8.5c0-2.034-1.597-3.687-3.564-3.687zm.272.256h7.672c1.842 0 3.325 1.534 3.325 3.44v7.937c0 1.906-1.483 3.44-3.325 3.44H4.63c-1.842 0-3.325-1.534-3.325-3.44V4.49c0-1.906 1.483-3.44 3.325-3.44z" opacity=".01" style="font-feature-settings:normal;font-variant-alternates:normal;font-variant-caps:normal;font-variant-east-asian:normal;font-variant-ligatures:normal;font-variant-numeric:normal;font-variant-position:normal;font-variation-settings:normal;inline-size:0;isolation:auto;mix-blend-mode:normal;shape-margin:0;shape-padding:0;text-decoration-color:#000;text-decoration-line:none;text-decoration-style:solid;text-indent:0;text-orientation:mixed;text-transform:none;white-space:normal" transform="scale(3.7796)"/><path d="M4.31 1.058c-1.866 0-3.375 1.539-3.375 3.44v8.467c0 1.9 1.57 3.439 3.435 3.439h8.2c1.866 0 3.427-1.538 3.427-3.44V4.498c0-1.9-1.51-3.439-3.375-3.439h-.097c1.794.087 3.214 1.582 3.214 3.432v7.937c0 1.906-1.506 3.44-3.377 3.44h-7.79c-1.871 0-3.377-1.534-3.377-3.44V4.49c0-1.85 1.42-3.345 3.214-3.432z" opacity=".03" style="font-feature-settings:normal;font-variant-alternates:normal;font-variant-caps:normal;font-variant-east-asian:normal;font-variant-ligatures:normal;font-variant-numeric:normal;font-variant-position:normal;font-variation-settings:normal;inline-size:0;isolation:auto;mix-blend-mode:normal;shape-margin:0;shape-padding:0;text-decoration-color:#000;text-decoration-line:none;text-decoration-style:solid;text-indent:0;text-orientation:mixed;text-transform:none;white-space:normal" transform="scale(3.7796)"/><path d="M4 46.969V49c0 6.648 5.896 12 12.544 12h30.961C54.153 61 60 55.648 60 49v-1.992a12.972 12.972 0 0 1-13 12.963H17.002A12.973 12.973 0 0 1 4 46.969z" opacity=".03" style="font-feature-settings:normal;font-variant-alternates:normal;font-variant-caps:normal;font-variant-east-asian:normal;font-variant-ligatures:normal;font-variant-numeric:normal;font-variant-position:normal;font-variation-settings:normal;inline-size:0;isolation:auto;mix-blend-mode:normal;shape-margin:0;shape-padding:0;text-decoration-color:#000;text-decoration-line:none;text-decoration-style:solid;text-indent:0;text-orientation:mixed;text-transform:none;white-space:normal"/><path d="M1.058 11.906v.592c0 1.939 1.573 3.5 3.332 3.5h8.16c1.76 0 3.325-1.561 3.325-3.5v-.58c-.006 2.095-1.537 3.78-3.44 3.78H4.498c-1.905 0-3.44-1.692-3.44-3.792z" opacity=".05" style="font-feature-settings:normal;font-variant-alternates:normal;font-variant-caps:normal;font-variant-east-asian:normal;font-variant-ligatures:normal;font-variant-numeric:normal;font-variant-position:normal;font-variation-settings:normal;inline-size:0;isolation:auto;mix-blend-mode:normal;shape-margin:0;shape-padding:0;text-decoration-color:#000;text-decoration-line:none;text-decoration-style:solid;text-indent:0;text-orientation:mixed;text-transform:none;white-space:normal" transform="scale(3.7796)"/></g><rect x="4" y="4" width="56" height="56" rx="13.002" ry="13.002" fill="url(#b)"/><g stroke-width="1.5"><path d="m6.5 22.103 7.5 21h13.5l3-8.4 3 8.4h9l3-8.4 3 8.4h9l-7.5-21h-9l-3 8.4-3-8.4H21.5l-5.25 15-5.25-15z" filter="url(#c)" opacity=".25"/><path d="M6 21h4.5l5.25 15L21 21h4.5L18 42h-4.5z" fill="url(#d)"/><path d="M22.5 42 30 21h4.5L27 42zm15 0L45 21h4.5L42 42z" fill="url(#e)"/><path d="m18 42 7.5-21H30l-7.5 21zm15 0 7.5-21H45l-7.5 21z" fill="url(#a)"/><path d="M37.5 42H33l-7.5-21H30zm15 0H48l-7.5-21H45z" fill="url(#f)"/><path d="m30 21 7.5 21H42l-7.5-21zm15 0 7.5 21H57l-7.5-21z" fill="url(#g)"/></g></svg>
